assets/icons/icon_add_big.svg

<svg width="56" height="56" viewBox="0 0 56 56" fill="none" xmlns="http://www.w3.org/2000/svg">
<g clip-path="url(#clip0_2188_3174)">
<path d="M44.9201 26.0001H30.0001V11.0801C30.0001 9.98008 29.1001 9.08008 28.0001 9.08008C26.9001 9.08008 26.0001 9.98008 26.0001 11.0801V26.0001H11.0801C9.98008 26.0001 9.08008 26.9001 9.08008 28.0001C9.08008 29.1001 9.98008 30.0001 11.0801 30.0001H26.0001V44.9201C26.0001 46.0201 26.9001 46.9201 28.0001 46.9201C29.1001 46.9201 30.0001 46.0201 30.0001 44.9201V30.0001H44.9201C46.0201 30.0001 46.9201 29.1001 46.9201 28.0001C46.9201 26.9001 46.0201 26.0001 44.9201 26.0001Z" fill="black"/>
</g>
<defs>
<clipPath id="clip0_2188_3174">
<rect width="56" height="56" fill="white"/>
</clipPath>
</defs>
</svg>

<?xml version="1.0" encoding="UTF-8"?>
<svg xmlns="http://www.w3.org/2000/svg" viewBox="0 0 56 56">
  <defs>
    <style>
      .cls-1 {
        fill: none;
        opacity: .2;
      }
    </style>
  </defs>
  <g id="guid">
    <g>
      <rect class="cls-1" x="0" width="56" height="56"/>
      <rect class="cls-1" x="4.67" y="4.67" width="46.67" height="46.67"/>
    </g>
  </g>
  <g id="Layer_2" data-name="Layer 2">
    <path d="M44.92,26h-14.92v-14.92c0-1.1-.9-2-2-2s-2,.9-2,2v14.92h-14.92c-1.1,0-2,.9-2,2s.9,2,2,2h14.92v14.92c0,1.1.9,2,2,2s2-.9,2-2v-14.92h14.92c1.1,0,2-.9,2-2s-.9-2-2-2Z"/>
  </g>
</svg>
